X:1
T:Little Night Music Mvt. 1
C:Wolfgang Amadeus Mozart
Q:280
M:4/4
L:1/8
K:G
b a z a d' ^c' b a | b a z a a a a a | b a z2 [b3B3] a/3g/3f/3 |
g2 z2 [a3A3] g/3f/3e/3 | f2 z2 b ^c'/d'/ c' b | b a f a a g f e |
d A B ^c d d e d/e/ | 
f ^c d e f f g f/g/ | a a ^a ^g/a/ b2 z2 | B3 e d ^c B A | d z f z d z z2 |
